X: 30413
T: DINSMORE'S QUICKSTEP
C:
%R: quicksktep, march, reel
B: Elias Howe "The Musician's Companion" Part 3 1844 p.41 #3
S: http://imslp.org/wiki/The_Musician's_Companion_(Howe,_Elias)
S: https://archive.org/stream/firstthirdpartof03howe/#page/66/mode/1up
Z: 2016 John Chambers <jc:trillian.mit.edu>
N: The rhythms between the strains don't match; not fixed.
M: 2/4
L: 1/16
K: C
% - - - - - - - - - - - - - - - - - - - - - - - - -
G,2 |\
C2EG .A2cA | G2EC E2DC | C2EG G2FE | DDDD D2 G,2 |\
C2EG A2cA | G2ce g2ed | e2ag e2dc | G2AB c4 :|
|:\
g2gg c'2c'c' | e2ee g2gg | c2cc e2dc | e2dd d2 G2 |\
A2Bc E2FG | F2GA D2EF | E2GF D2CC | C2C2C2C2 :|
% - - - - - - - - - - - - - - - - - - - - - - - - -
